!!!ONB: MCCC : ILB0323_01 : Extracted Monophonic Melody
!!!COM: Beethoven, Ludwig van
!!!OPR: Violin Sonata No.2 in A major
!!!OMV: 1
!!!SCT: Op.12 No.2
!!!ODT: 1797///
**kern
*staff1
=1
*clefG2
*k[f#c#g#d#]
*E:
*M6/8
8A
8e
8e
8A
8e
8e
=2
8A
8e
8e
8A
8e
8e
=3
8A
8e
8e
8A
8e
8e
=4
8A
8e
8e
8A
8e
8e
=5
8B
8e
8e
8B
8e
8e
=6
8B
8e
8e
8B
8e
8e
=7
8B
8e
8e
8B
8e
8e
=8
8B
8e
8e
8B
8e
8e
=9
4.e
4.r
=10
4.r
4r
8cc#
=11
8cc#
8b
16.a
32a
8g#
8f#
8g#
=12
4.a
4r
16c#
16B
=13
16A
16G#
16B
16A
16c#
16B
16d
16c#
16e
16d
16f#
16e
=14
16g#
16f#
16a
16g#
16b
16a
16cc#
16b
16dd
16cc#
8ee
=15
8ee
8dd
16.cc#
32cc#
8b
8a
8b
=16
4.a
4.r
=17
8ddd#
4eee
8bb#
4ccc#
=18
8gg#
4aa
8dd#
4ee
=19
2.r
=20
2.r
=21
8eee
4ddd
8ccc#
4bb
=22
8aa
4gg#
8ff#
4ee
=23
2.r
=24
2.r
=25
4r
16A
16G#
16B
16A
16c#
16B
16d
16c#
=26
16e
16d
16f#
16e
16g#
16f#
16a
16g#
16b
16a
8cc#
=27
4b
8a
4g#
8f#
=28
4B
8B
4B#
8f#
=29
4e#
8f#
4e#
8f#
=30
8e#
8c#
8c#
8c#
8c#
8c#
=31
4c#
8c#
8c#
8d#
8e#
=32
4.f#[
4f#]
8f#
=33
4f#
8f#
4f#
8f#
=34
4.g
8a
8b
8a
=35
4.g
8a
8b
8a
=36
8g
8b
8a
8g
8f#
8e
=37
8d#
8a
8a
8d#
8a
8a
=38
8g
8b
8a
8g
8f#
8g
=39
8g
8a#
8a#
8g
8a#
8a#
=40
8g##
8b#
8g##
8a#
8b#
8a#
=41
8g##
8b#
8g##
8a#
8b#
8a#
=42
8g##
8b#
8a
8a
8b#
8a
=43
8a
8b
8a
8a
8b
8a
=44
8b
8g#
8e
8c#
8f#
8a
=45
8B
8e
8g#
8A
8f#
16bb
16ccc#
=46
4bb
16aa
16bb
4aa
16gg#
16aa
=47
4gg#
16ff#
16gg#
4.ff#
=48
8r
4ee
8r
4ff#
=49
8r
4gg#
8r
8aa
16bb
16ccc#
=50
4bb
16aa
16bb
4aa
16gg#
16aa
=51
4gg#
16ff#
16gg#
4.ff#
=52
8r
4ee
8r
4ff#
=53
8r
4gg#
8r
4aa
=54
4.bb
4.aa#
=55
4.aa
4.gg#
=56
2.aa
=57
8gg#
8ee
8ee
8ff#
8dd#
8dd#
=58
2.eee
=59
8ddd#
8bb
8bb
4.ddd
=60
8ccc#
8aa
8aa
4.bb#
=61
2.r
=62
2.r
=63
4.r
16aa
16gg#
16aa
16bb
8bb#
=64
2.r
=65
4.r
16ee
16dd#
16ee
16ff#
8gg
=66
4.r
8c#
8e
8a
=67
8B
8e
8g#
8b
8cc#
8dd#
=68
4.ee
4.e
=69
4.a
4.e#
=70
4.e
4d#
8b
=71
4.b
4.g
=72
4.f#
4e#
8cc#
=73
4.cc#
4f#
8dd#
=74
4.dd#
4ee
8a#
=75
4.a#
4b
8d#
=76
4.e
4.ee
=77
4.aa
4.ee#
=78
4.ee
4dd#
8bb
=79
4.bb
4.gg
=80
4.ff#
4ee#
8ccc#
=81
4.ccc#
4ff#
8ddd#
=82
4.ddd#
4eee
8aa#
=83
4.aa#
4bb
8bb
=84
4bb
8bb
4bb
8bb
=85
4bb
8bb
4bb
8bb
=86
4bb
8ee
4.r
=87
2.r
=88
8A
8e
8e
8A
8e
8e
=89
8A
8e
8e
8A
8e
8e
=90
8A
8e
8e
8A
8e
8e
=91
8A
8e
8e
8A
8e
8e
=92
8B
8e
8e
8B
8e
8e
=93
8B
8e
8e
8B
8e
8e
=94
8B
8e
8e
8B
8e
8e
=95
8B
8e
8e
8B
8e
8e
=96
4.e
4.r
=97
4.r
4r
8cc#
=98
8cc#
8b
16.a
32a
8g#
8f#
8g#
=99
4.a
4r
16c#
16B
=100
16A
16G#
16B
16A
16c#
16B
16d
16c#
16e
16d
16f#
16e
=101
16g#
16f#
16a
16g#
16b
16a
16cc#
16b
16dd
16cc#
8ee
=102
8ee
8dd
16.cc#
32cc#
8b
8a
8b
=103
4.a
4.r
=104
8ddd#
4eee
8bb#
4ccc#
=105
8gg#
4aa
8dd#
4ee
=106
2.r
=107
2.r
=108
8eee
4ddd
8ccc#
4bb
=109
8aa
4gg#
8ff#
4ee
=110
2.r
=111
2.r
=112
4r
16A
16G#
16B
16A
16c#
16B
16d
16c#
=113
16e
16d
16f#
16e
16g#
16f#
16a
16g#
16b
16a
8cc#
=114
4b
8a
4g#
8f#
=115
4B
8B
4B#
8f#
=116
4e#
8f#
4e#
8f#
=117
8e#
8c#
8c#
8c#
8c#
8c#
=118
4c#
8c#
8c#
8d#
8e#
=119
4.f#[
4f#]
8f#
=120
4f#
8f#
4f#
8f#
=121
4.g
8a
8b
8a
=122
4.g
8a
8b
8a
=123
8g
8b
8a
8g
8f#
8e
=124
8d#
8a
8a
8d#
8a
8a
=125
8g
8b
8a
8g
8f#
8g
=126
8g
8a#
8a#
8g
8a#
8a#
=127
8g##
8b#
8g##
8a#
8b#
8a#
=128
8g##
8b#
8g##
8a#
8b#
8a#
=129
8g##
8b#
8a
8a
8b#
8a
=130
8a
8b
8a
8a
8b
8a
=131
8b
8g#
8e
8c#
8f#
8a
=132
8B
8e
8g#
8A
8f#
16bb
16ccc#
=133
4bb
16aa
16bb
4aa
16gg#
16aa
=134
4gg#
16ff#
16gg#
4.ff#
=135
8r
4ee
8r
4ff#
=136
8r
4gg#
8r
8aa
16bb
16ccc#
=137
4bb
16aa
16bb
4aa
16gg#
16aa
=138
4gg#
16ff#
16gg#
4.ff#
=139
8r
4ee
8r
4ff#
=140
8r
4gg#
8r
4aa
=141
4.bb
4.aa#
=142
4.aa
4.gg#
=143
2.aa
=144
8gg#
8ee
8ee
8ff#
8dd#
8dd#
=145
2.eee
=146
8ddd#
8bb
8bb
4.ddd
=147
8ccc#
8aa
8aa
4.bb#
=148
2.r
=149
2.r
=150
4.r
16aa
16gg#
16aa
16bb
8bb#
=151
2.r
=152
4.r
16ee
16dd#
16ee
16ff#
8gg
=153
4.r
8c#
8e
8a
=154
8B
8e
8g#
8b
8cc#
8dd#
=155
4.ee
4.e
=156
4.a
4.e#
=157
4.e
4d#
8b
=158
4.b
4.g
=159
4.f#
4e#
8cc#
=160
4.cc#
4f#
8dd#
=161
4.dd#
4ee
8a#
=162
4.a#
4b
8d#
=163
4.e
4.ee
=164
4.aa
4.ee#
=165
4.ee
4dd#
8bb
=166
4.bb
4.gg
=167
4.ff#
4ee#
8ccc#
=168
4.ccc#
4ff#
8ddd#
=169
4.ddd#
4eee
8aa#
=170
4.aa#
4bb
8bb
=171
4bb
8bb
4bb
8bb
=172
4bb
8bb
4bb
8bb
=173
4bb
8ee
4.r
=174
2.r
=175
8ff#
4gg
8dd#
4ee
=176
8b
4b#
8f#
4g
=177
2.r
=178
2.r
=179
8gg
4ee#
8ee
4dd
=180
8b#
4b
8a
4g
=181
2.r
=182
4.r
4r
8g
=183
16b#
16b
16dd
16b#
16ee
16dd
16ee#
16ee
16gg
16ee#
16aa
16gg
=184
16bb
16aa
16bb#
16bb
16ddd
16bb#
8eee
8eee
8eee
=185
8eee
8ddd
16.bb#
32bb#
8bb
8aa
8bb
=186
4.bb#
4.r
=187
2.r
=188
2.r
=189
4.r
4r
8g
=190
8gg
8ee#
16.ee
32ee
8dd
8b#
8dd
=191
4.ee
4r
8e
=192
8ee
8dd
16.b#
32b#
8b
8a
8b
=193
4.b#
4r
8b#
=194
8aa
8gg
16.ee#
32ee#
8ee
8dd
8ee
=195
8ee#
8ee
16.dd
32dd
8cc#
8b
8cc#
=196
4dd
8dd
4dd#
8dd#
=197
4.ee
4.r
=198
4.r
4.ee
=199
4.dd
4.b#
=200
4.b
4.a
=201
8g#
8d#
8e
8r
8e#
8f#
=202
8r
8g
8g#
8r
8g#
8a
=203
8r
8a#
8b
8r
8b
8b#
=204
8r
8cc#
8dd
8r
8dd
8dd#
=205
4.ee
4.r
=206
4.r
4.ee
=207
4.dd
4.b#
=208
4.b
4.a
=209
4.g#
4.f#
=210
4.e
4.d
=211
8A
8e
8e
8A
8e
8e
=212
8A
8e
8e
8A
8e
8e
=213
8A
8e
8e
8A
8e
8e
=214
8A
8e
8e
8A
8e
8e
=215
8B
8e
8e
8B
8e
8e
=216
8B
8e
8e
8B
8e
8e
=217
8B
8e
8e
8B
8e
8e
=218
8B
8e
8e
8B
8e
8e
=219
4.e
4.r
=220
4.r
4r
8cc#
=221
8cc#
8b
16.a
32a
8g#
8f#
8g#
=222
4.a
4r
16c#
16B
=223
16A
16G#
16B
16A
16c#
16B
16d
16c#
16e
16d
16f#
16e
=224
16g#
16f#
16a
16g#
16b
16a
16cc#
16b
16dd
16cc#
8ee
=225
8ee
8dd
16.cc#
32cc#
8b
8a
8b
=226
4.a
4.r
=227
8a
8g
16.f#
32f#
8e
8d
8e
=228
4.d
4.r
=229
8aa
8gg
16.ff#
32ff#
8ee
8dd
8ee
=230
4.dd
4.r
=231
8a
8g
16.f#
32f#
8e
8d
8e
=232
8f#
8e
8d
8c#
8d
8B
=233
4A#
8f#
4f#
8f#
=234
4f#
8f#
8f#
8g#
8a#
=235
4.b[
4b]
8b
=236
4b
8b
4b
8b
=237
4.b#
8dd
8ee
8dd
=238
4.b#
8dd
8ee
8dd
=239
8b#
8ee
8dd
8b#
8b
8a
=240
8g#
8dd
8dd
8g#
8dd
8dd
=241
8b#
8ee
8dd
8b#
8a##
8b#
=242
8b#
8dd#
8dd#
8b#
8dd#
8dd#
=243
8cc##
8ee#
8cc##
8dd#
8ee#
8dd#
=244
8cc##
8ee#
8cc##
8dd#
8ee#
8dd#
=245
8cc##
8ee#
8dd
8dd
8ee#
8dd
=246
8dd
8ee
8dd
8dd
8ee
8dd
=247
8ee
8cc#
8a
8f#
8b
8dd
=248
8e
8a
8cc#
8d
8b
16eee
16fff#
=249
4eee
16ddd
16eee
4ddd
16ccc#
16ddd
=250
4ccc#
16bb
16ccc#
4.bb
=251
8r
4aa
8r
4bb
=252
8r
4ccc#
8r
8ddd
16eee
16fff#
=253
4eee
16ddd
16eee
4ddd
16ccc#
16ddd
=254
4ccc#
16bb
16ccc#
4.bb
=255
8r
4aa
8r
4bb
=256
8r
4ccc#
8r
4ddd
=257
4.eee
4.ddd#
=258
4.ddd
4.ccc#
=259
2.ddd
=260
8ccc#
8aa
8aa
8bb
8gg#
8gg#
=261
2.aa
=262
8gg#
8ee
8ee
4.gg
=263
8ff#
8dd
8dd
4.ee#
=264
2.r
=265
2.r
=266
4.r
16dd
16cc#
16dd
16ee
8ee#
=267
2.r
=268
4.r
16aa
16gg#
16aa
16bb
8bb#
=269
4.r
8d
8f#
8a
=270
8c#
8e
8a
8e
8f#
8g#
=271
4.a
4.A
=272
4.d
4.A#
=273
4.A
4G#
8e
=274
4.e
4.B#
=275
4.B
4A#
8f#
=276
4.f#
4B
8g#
=277
4.g#
4a
8d#
=278
4.d#
4e
8g#
=279
4.a
4.a
=280
4.dd
4.a#
=281
4.a
4g#
8ee
=282
4.ee
4.b#
=283
4.b
4a#
8ff#
=284
4.ff#
4b
8gg#
=285
4.gg#
4aa
8ddd#
=286
4.ddd#
4eee
8eee
=287
4eee
8eee
4eee
8eee
=288
4eee
8eee
4eee
8eee
=289
4eee
8aa
4.r
=290
2.r
=291
8d
8a
8a
8d
8a
8a
=292
8d
8a
8a
8d
8a
8a
=293
8d
8a
8a
8d
8a
8a
=294
8d
8a
8a
8d
8a
8a
=295
8e
8a
8a
8e
8a
8a
=296
8e
8a
8a
8e
8a
8a
=297
8e
8a
8a
8e
8a
8a
=298
8e
8a
8a
8e
8a
8a
=299
8r
8gg
8ff#
8r
8ee
8dd
=300
8r
8ff#
8ee
8r
8dd
8cc#
=301
8r
8ee
8dd
8r
8cc#
8b
=302
8r
8dd
8cc#
8r
8b
8a#
=303
8ee
4dd
8cc#
4b
=304
8dd
4cc#
8b
4a#
=305
8a#
4b
8b
4b#
=306
8b#
4b
8cc#
4dd
=307
8dd
4cc#
8dd#
4ee
=308
4.ee
4ee
8b[
=309
4.b]
4.r
=310
4.r
4r
8dd[
=311
4.dd]
4.r
=312
2.r
=313
2.e[
=314
2.e]
=315
8ddd#
4eee
8aa#
4bb
=316
8gg
4gg#
8dd#
4ee
=317
2.e[
=318
4.e]
8ee
8aa
8ccc#
=319
8eee
4ddd
8ccc#
4bb
=320
8aa
4gg#
8ff#
4ee
=321
2.r
=322
2.r
=323
4.r
8gg#
4aa
=324
8dd#
4ee
8b#
4cc#
=325
8g#
4a
4.r
=326
8b#
4cc#
4.r
=327
8dd#
4ee
4.r
=328
8dd#
4ee
8dd#
4ee
=329
8gg#
4aa
4.r
=330
8dd#
4ee
4.r
=331
8g#
4a
4.r
==
*-
